X:211
T:Ponders-End. PDF2.211
B:Playford’s Dancing Master, Vol 2, 1713-28
Z:vmp.Ruairidh Greig 2015 www.village-music-project.org.uk
M:C|
L:1/4
Q:1/2=100
K:C
c|BG-GA/B/|c3B/c/|d2B2|cA-Ad|
BG-GA/B/|c3e/f/|g2e2c3:|
|:e/f/|g2e2|c>dcB/c/|d2B2|cA-Ad|
BG-GA/B/|c>de(d/c/)|e/f/gd/e/f|ec2:|
W:Each Strain is to be play'd twice over.
W:The first Man Setts to the second Woman and turn single, then he turns his own Partner.|
W:Then the second Couple does the same:| Then lead through the second and third Couple, and
W:cast up on the outside of both Couple, till you come to the Top., and cast off.| then Back to
W:Back with your Partner, and Right and Left quite round:|

